client/resources/iconsets/breeze/src/svg/16x16/icon_download.svg

<svg xmlns="http://www.w3.org/2000/svg" width="16" height="16" viewBox="0 0 16 16">
 <path style="fill:#6d6d70"
       d="M 6.5 1 C 6.2238576 1 6 1.2238576 6 1.5 L 6 7 L 3.5 7 C 3.0363769 7 2.8224888 7.5764049 3.1738281 7.8789062 L 7.6738281 11.878906 C 7.8613321 12.040291 8.1386679 12.040291 8.3261719 11.878906 L 12.826172 7.8789062 C 13.177511 7.5764049 12.963623 7.0000596 12.5 7 L 10 7 L 10 1.5 C 10 1.2238576 9.776142 1 9.5 1 L 6.5 1 z M 7 2 L 9 2 L 9 7.5 C 9 7.7761424 9.223858 8 9.5 8 L 11.148438 8 L 8 10.841797 L 4.8515625 8 L 6.5 8 C 6.7761424 8 7 7.7761424 7 7.5 L 7 2 z M 2 11 C 1.446 11 1 11.446 1 12 L 1 14 C 1 14.554 1.446 15 2 15 L 14 15 C 14.554 15 15 14.554 15 14 L 15 12 C 15 11.446 14.554 11 14 11 L 10.439453 11 L 8.3261719 12.878906 C 8.1386623 13.040291 7.8613377 13.040291 7.6738281 12.878906 L 5.5605469 11 L 2 11 z M 11.5 13 C 11.777 13 12 13.223 12 13.5 C 12 13.777 11.777 14 11.5 14 C 11.223 14 11 13.777 11 13.5 C 11 13.223 11.223 13 11.5 13 z M 13.5 13 C 13.777 13 14 13.223 14 13.5 C 14 13.777 13.777 14 13.5 14 C 13.223 14 13 13.777 13 13.5 C 13 13.223 13.223 13 13.5 13 z "
       />
</svg>

<svg xmlns="http://www.w3.org/2000/svg" width="16" height="16"><path d="M6.5 1a.5.5 0 0 0-.5.5V7H3.5a.5.5 0 0 0-.326.879l4.5 4a.5.5 0 0 0 .652 0l4.5-4A.5.5 0 0 0 12.5 7H10V1.5a.5.5 0 0 0-.5-.5h-3zM7 2h2v5.5a.5.5 0 0 0 .5.5h1.648L8 10.842 4.852 8H6.5a.5.5 0 0 0 .5-.5V2zm-5 9a1 1 0 0 0-1 1v2a1 1 0 0 0 1 1h12a1 1 0 0 0 1-1v-2a1 1 0 0 0-1-1h-3.561l-2.113 1.879a.5.5 0 0 1-.652 0L5.561 11H2zm9.5 2a.5.5 0 1 1 0 1 .5.5 0 1 1 0-1zm2 0a.5.5 0 1 1 0 1 .5.5 0 1 1 0-1z" fill="#6d6d70"/></svg>
